app/assets/images/heroicons/micro/link.svg

<svg width="16" height="16" viewBox="0 0 16 16" fill="none" xmlns="http://www.w3.org/2000/svg">
<path fill-rule="evenodd" clip-rule="evenodd" d="M8.91421 6.02513C9.2071 5.73223 9.68197 5.73223 9.97487 6.02513C11.3417 7.39196 11.3417 9.60804 9.97487 10.9749L7.97487 12.9749C6.60803 14.3417 4.39195 14.3417 3.02512 12.9749C1.82824 11.778 1.67995 9.93153 2.57781 8.57265C2.80615 8.22706 3.27142 8.13202 3.61701 8.36036C3.9626 8.5887 4.05765 9.05397 3.8293 9.39956C3.31651 10.1757 3.40282 11.2313 4.08578 11.9142C4.86683 12.6953 6.13316 12.6953 6.91421 11.9142L8.91421 9.91421C9.69525 9.13316 9.69525 7.86683 8.91421 7.08579C8.62131 6.79289 8.62131 6.31802 8.91421 6.02513Z" fill="black"/>
<path fill-rule="evenodd" clip-rule="evenodd" d="M7.08578 9.97487C6.79289 10.2678 6.31801 10.2678 6.02512 9.97487C4.65828 8.60804 4.65829 6.39196 6.02512 5.02513L8.02512 3.02513C9.39195 1.65829 11.608 1.65829 12.9749 3.02513C14.1717 4.22201 14.32 6.06847 13.4222 7.42735C13.1938 7.77294 12.7286 7.86798 12.383 7.63964C12.0374 7.4113 11.9423 6.94603 12.1707 6.60044C12.6835 5.82435 12.5972 4.76874 11.9142 4.08579C11.1332 3.30474 9.86683 3.30474 9.08578 4.08579L7.08578 6.08579C6.30473 6.86683 6.30473 8.13316 7.08578 8.91421C7.37867 9.20711 7.37867 9.68198 7.08578 9.97487Z" fill="black"/>
</svg>

<svg xmlns="http://www.w3.org/2000/svg" viewBox="0 0 16 16" fill="currentColor" aria-hidden="true" data-slot="icon">
  <path fill-rule="evenodd" d="M8.914 6.025a.75.75 0 0 1 1.06 0 3.5 3.5 0 0 1 0 4.95l-2 2a3.5 3.5 0 0 1-5.396-4.402.75.75 0 0 1 1.251.827 2 2 0 0 0 3.085 2.514l2-2a2 2 0 0 0 0-2.828.75.75 0 0 1 0-1.06Z" clip-rule="evenodd"/>
  <path fill-rule="evenodd" d="M7.086 9.975a.75.75 0 0 1-1.06 0 3.5 3.5 0 0 1 0-4.95l2-2a3.5 3.5 0 0 1 5.396 4.402.75.75 0 0 1-1.251-.827 2 2 0 0 0-3.085-2.514l-2 2a2 2 0 0 0 0 2.828.75.75 0 0 1 0 1.06Z" clip-rule="evenodd"/>
</svg>
